src/assets/icons/trash.svg

<svg viewBox="0 0 24 24" fill="currentColor" xmlns="http://www.w3.org/2000/svg"><path d="m7 4v-1c0-1.1045695.8954305-2 2-2h6c1.1045695 0 2 .8954305 2 2v1h3c1.1045695 0 2 .8954305 2 2v2c0 1.1045695-.8954305 2-2 2h-.0801338l-.9198662 11c0 1.1045695-.8954305 2-2 2h-10c-1.1045695 0-2-.8954305-1.99654576-1.9169545l-.92358712-11.0830455h-.07986712c-1.1045695 0-2-.8954305-2-2v-2c0-1.1045695.8954305-2 2-2zm0 2h-3v2h16v-2h-3zm-.91351114 4 .91351114 11h10l.0034542-.0830455.9097463-10.9169545zm8.91351114-6v-1h-6v1z" fill-rule="evenodd"/></svg>

<svg xmlns="http://www.w3.org/2000/svg" fill="currentColor" viewBox="0 0 24 24"><path fill-rule="evenodd" d="M7 4V3a2 2 0 0 1 2-2h6a2 2 0 0 1 2 2v1h3a2 2 0 0 1 2 2v2a2 2 0 0 1-2 2h-.08L19 21a2 2 0 0 1-2 2H7c-1.105 0-2-.895-1.997-1.917L4.08 10H4a2 2 0 0 1-2-2V6a2 2 0 0 1 2-2zm0 2H4v2h16V6h-3zm-.914 4L7 21h10l.003-.083.91-10.917zM15 4V3H9v1z"/></svg>
